X: 13092
T: Fionn's
R: reel
M: 4/4
K: Amajor
E (3E/F/G/|:A4 G3A|F2F4 E (3E/F/G/|A2Ac ABBA|E3E- EE (3EFG|
A2eA G2eG|F3F- FECE|DFAD CEAC|1 B,3B,- B,E (3EFG:|2 B,3B,- B,CB,A,||
|:A,3C B,A,B,C|A,B,B,A, B,A,B,C|A,2CA, B,A,B,C|E3E- ECCB,|
A,3C B,A,B,C|A,B,B,A, B,A,B,C|DFAD CEAC|1 B,3B,- B,CB,A,:|2 B,3B,- B,AGA||
|:F3F- FECB,|A,3A,- A,B,CE|F2FA FECA,|B,3B,- B,AGA|
F3F- FECB,|A,3A,- A,B,CE|DFAD CEAC|1 B,3B,- B,AGA:|2 B,3B,- B,CB,A,||

